X:1
T:C Major A. Husband, 1790
T:Isaac Watts, 1707 (Hymn 66, Book 2)            86. 86. (C. M.) 
T:Hephzibah Transcribed from  A Collection of Psalm Tunes, 1790.
%%score [ 1 2 3 ]
L:1/8
Q:1/4=90
M:2/4
K:C
V:1 treble nm="Tr." snm="Tr."
V:2 treble-8 nm="T." snm="T."
V:3 bass nm="B." snm="B."
V:1
"^2. There ev–er–las–ting  spring  abides, And never-withering flow'rs:      Death,  like  a    narrow    sea,      di – vides , Death,  like  a   narrow    sea,         di –""^1. There  is  a           land of pure delight, Where saints immortal reign,       In – fi    –  nite  day ex – cludes   the  night,  In – fi  –  nite    day  ex – cludes   the" e2 | %1
 g2 g>f | ef ga | g2 g2 | g2 d2 | ef gf | e2 d2 |{cd} e4 | z2 e2 | g3 f | e2 g2 | g3 ^f | g2 z2 | %13
 z4 | z4 | z4 | z2 c2 | ee ee | e2 z e | gg gg | g2 z g | ed ef | g3 a | g2 f2 | e4 |] %25
V:2
"^3. Sweet fields beyond the swelling flood  Stand dressed in living green:   So    to          the  Jews old  Ca  – naan stood,  So   to         the  Jews old  Ca  – naan""^4. But  timorous  mortals  start and shrink   To   cross  this   narrow  sea,        And lin   –  ger  shivering  on    the    brink,  And lin  – ger  shivering  on        the" G2 | %1
 c>d e>f | gf ed | c2 d2 | d2 g2 | ed ed | c2 B2 |{AB} c4 | z2 c2 | ed ef | g2 fe | dc BA | G2 G2 | %13
 AG AB | c2 BA | GF ED | %16
"^1. night,  And pleasures banish pain,      And pleasures banish pain,     And  plea  –  sures,   pleas        –        sures     banish    pain.""^2. –vides  This heav'nly land from ours,  This heav'nly land from ours,  This  heav'n –  ly,      heav'n      –           ly      land from ours.""^3. stood  While Jordan rolled between,  While Jordan rolled between,  While Jor    –  dan,   Jor             –          dan   rolled  between.""^4. brink,  And  fear  to  launch  away,        And  fear  to  launch  away,        And    fear         to,     fear                         to   launch   a – way.""^5. flood,  Should fright us from the shore, Should fright us from the shore, Should fright  us,  fright                us   from   the  shore." C2 G2 | %17
 cc cc | c2 z c | ee ee | d2 z G | cB cd | ed/e/ f{e}d | c2 B2 | c4 |] %25
V:3
"^5. Could we but climb where Moses stood,  And view the landscape o'er,   Not Jordan's stream, nor death's cold flood, Not Jordan's stream, nor death's cold" C,2 | %1
 C,2 C,2 | C,D, E,F, | G,2 G,2 | G,2 G,2 | G,F, E,F, | G,2 G,,2 | C,4 | z2 C2 | G,F, E,D, | %10
 C,2 C,2 | D,3 D, | G,2 G,2 | A,G, A,B, | C2 B,A, | G,F, E,D, | C,2 C,2 | C,C, C,C, | C,2 z C, | %19
 CC CC | G,2 z2 | %21
 z2 z"^1. And  plea         –          sures   ba–nish  pain.""^2.  This  heav'n    –            ly      land from ours.""^3. While  Jor         –          dan  rolled  between.""^4. And     fear                      to   launch   a – way." G, | %22
 C,B,,/C,/D,/E,/ F,/D,/ | G,2 G,,2 | %24
"^5. Should  fright              us       from  the  shore." C,4 |] %25

